packages/foundations/assets/icons/functional/images/maps/navigation_straight_14.svg

<svg width="14" height="14" viewBox="0 0 14 14" fill="none" xmlns="http://www.w3.org/2000/svg">
<g clip-path="url(#clip0_2213_5373)">
<path fill-rule="evenodd" clip-rule="evenodd" d="M7.00002 1.99231C7.16322 1.99231 7.32641 2.04479 7.44466 2.14981L10.3756 5.0853C10.5184 5.20434 10.5898 5.39488 10.5898 5.58543C10.5898 5.99035 10.2566 6.3 9.87582 6.3C9.68543 6.3 9.49503 6.22857 9.3522 6.08562L7.68207 4.41323V11.2897C7.68207 11.6579 7.36064 12.0077 6.96412 12.0077C6.56761 12.0077 6.24618 11.6863 6.24618 11.2897V4.48503L4.64784 6.08562C4.50501 6.22857 4.31462 6.3 4.12422 6.3C3.74343 6.3 3.41028 5.99035 3.41028 5.58543C3.41028 5.39488 3.50548 5.20434 3.62442 5.0853L6.50022 2.20669C6.64305 2.06375 6.83344 1.99231 7.00002 1.99231Z" fill="#1A1C1F"/>
</g>
<defs>
<clipPath id="clip0_2213_5373">
<rect width="14" height="14" fill="white"/>
</clipPath>
</defs>
</svg>

<svg xmlns="http://www.w3.org/2000/svg" width="14" height="14" fill="none"><g clip-path="url(#a)"><path fill="#1A1C1F" fill-rule="evenodd" d="M7 1.992c.163 0 .326.053.445.158l2.93 2.935c.143.12.215.31.215.5a.716.716 0 0 1-.714.715.74.74 0 0 1-.524-.214l-1.67-1.673v6.877a.737.737 0 0 1-.718.718.72.72 0 0 1-.718-.718V4.485l-1.598 1.6a.74.74 0 0 1-.524.215.716.716 0 0 1-.714-.715c0-.19.095-.38.214-.5L6.5 2.207a.73.73 0 0 1 .5-.215" clip-rule="evenodd"/></g><defs><clipPath id="a"><path fill="#fff" d="M0 0h14v14H0z"/></clipPath></defs></svg>
